Papirus/24x24/apps/kjots.svg

<!-- Created with Inkscape (http://www.inkscape.org/) -->
<svg width="24" height="24" version="1.1" viewBox="0 0 24 24.000002" xmlns="http://www.w3.org/2000/svg">
 <rect x="3.9999466" y="2.4999695" width="15.999872" height="19.99984" ry=".99999201" style="opacity:.2"/>
 <rect x="3.9999466" y="1.9999733" width="15.999872" height="19.99984" ry=".99999201" style="fill:#fabd01"/>
 <path d="m4.9999387 1.9999733c-0.5539956 0-0.9999921 0.4459965-0.9999921 0.9999921v17.999856c0 0.553996 0.4459965 0.999992 0.9999921 0.999992h1.9999843v-19.99984z" style="opacity:.5"/>
 <path d="m4.9999387 1.9999733c-0.553995 0-0.9999921 0.4459971-0.9999921 0.9999922v0.4999959c0-0.553995 0.4459971-0.9999921 0.9999921-0.9999921h13.999888c0.553995 0 0.999992 0.4459971 0.999992 0.9999921v-0.4999959c0-0.5539951-0.445997-0.9999922-0.999992-0.9999922z" style="fill:#ffffff;opacity:.2"/>
 <path d="m21.657108 4.500843c-0.404797-0.0192865-0.712885 0.2910136-0.712885 0.2910136l-10.943953 10.945163-9.6e-5 2.762869h2.76258l10.946973-10.944423s0.652994-0.6537371 0-1.3066307l-1.458874-1.4569789c-0.20406-0.2040297-0.409747-0.2822466-0.593745-0.2910136z" style="opacity:.2"/>
 <path d="m21.657108 4.0008472c-0.404797-0.0192869-0.712885 0.2910133-0.712885 0.2910133l-10.943953 10.945164-9.6e-5 2.762868h2.76258l10.946973-10.944422s0.652994-0.6537356 0-1.3066303l-1.458874-1.4569791c-0.20406-0.2040293-0.409747-0.2822463-0.593745-0.2910133z" style="fill:#4f4f4f"/>
</svg>

<svg xmlns="http://www.w3.org/2000/svg" width="24" height="24" version="1.1">
 <rect style="opacity:0.2" width="16" height="20" x="4" y="2.5" ry="1"/>
 <rect style="fill:#fabd01" width="16" height="20" x="4" y="2" ry="1"/>
 <path style="opacity:0.5" d="M 5 2 C 4.446 2 4 2.446 4 3 L 4 21 C 4 21.554 4.446 22 5 22 L 7 22 L 7 2 L 5 2 z"/>
 <path style="fill:#ffffff;opacity:0.2" d="M 5 2 C 4.446 2 4 2.446 4 3 L 4 3.5 C 4 2.946 4.446 2.5 5 2.5 L 19 2.5 C 19.554 2.5 20 2.946 20 3.5 L 20 3 C 20 2.446 19.554 2 19 2 L 5 2 z"/>
 <path style="opacity:0.2" d="M 21.657,4.501 C 21.252,4.482 20.944,4.792 20.944,4.792 L 10,15.737 V 18.5 H 12.763 L 23.71,7.556 C 23.71,7.556 24.363,6.902 23.71,6.249 L 22.251,4.792 C 22.047,4.588 21.841,4.51 21.657,4.501 Z"/>
 <path style="fill:#4f4f4f" d="M 21.657,4.001 C 21.252,3.982 20.944,4.292 20.944,4.292 L 10,15.237 V 18 H 12.763 L 23.71,7.056 C 23.71,7.056 24.363,6.402 23.71,5.749 L 22.251,4.292 C 22.047,4.088 21.841,4.01 21.657,4.001 Z"/>
</svg>
